X:10
T:Bring It Back!
R:reel
C:Henrik Norbeck
H:August 1992
M:C|
K:Bm
B2AF BFAF|EDEF ABAF|B2AF BFAF|EFAF ~B3z:|
|:f2ec dBcB|~A3B AFE2|1 fcec d2cB|cffe cB~B2:|2 cffe cddc|BAFA ~B3A||
Bdfd adfd|ec~c2 Ac~c2|Bdfd adfd|edcd ~B3A|
Bdfd adfd|ec~c2 ABce|f2ec dBcA|FBBA ~B3z||
"3rd part for flute"
Bdfd adfd|eA~A2 EAcA|Bdfd adfd|edcd ~B3A|
Bdfd adfd|eA~A2 ABce|f2ec dBcA|FBBA ~B3z||

